X:1
T:Title
%%score { ( 1 2 ) | ( 3 4 ) }
L:1/8
M:4/4
K:D
V:1 treble nm="Grand Piano"
V:2 treble 
V:3 bass 
V:4 bass 
V:1
 z4 z2[Q:1/4=100] z F | [FA]3 [GB] [FA]2 [DF][FA] | [EG]2 [CE]2 [DF]2 [FA]2 | B2 d2 d3 B | %4
[M:3/4] [FA]6 |[M:1/4] [FA]2 |[M:4/4] [Fd]3 [Fd] [Fd]2 [FA]2 | %7
[M:9/8] [GB]2 [Gc]- [Gc] [Fd]2- [Fd] z E |[M:4/4] F2 [FA]G [A,DF]2[K:bass] [G,CE]2 | [F,D]6 z2 | %10
 [Fd]4 z4 | [FA]4 z4 | [Gc]4 z4 |[M:9/8] z2 [D,A,] [EG] [FA]2- [FA] [FA]2 |[M:4/4] [Fd]4 z4 | %15
 d4 z4 | A3 A AABc |[M:3/4] [Fd]6 |] %18
V:2
 z4 z2 D2 | x8 | x8 | x8 |[M:3/4] x6 |[M:1/4] x2 |[M:4/4] x8 |[M:9/8] z3 z3 z D2 | %8
[M:4/4] x6[K:bass] x2 | x8 | z A,A,[Fd] edcB | DDDD [A,DF]2 [DFA]2 | EEEc cB[FA][EG] | %13
[M:9/8] [DF]3 z3 z3 |[M:4/4] z A,A,[Fd] [Fd][Fd][Ge][Fd] | G-[B,G-][B,G-][B,G-] [GB]2 d2 | x8 | %17
[M:3/4] x6 |] %18
V:3
 z4 z2 F,A, | [D,D]3 [D,D] [D,D]2 [D,A,]2 | [A,,A,]2 [A,,A,]2 [D,A,]2 [D,D]2 | %3
 [G,DG]2 [G,B,G]2 [G,B,G]3 [G,DG] |[M:3/4][K:bass] [D,D]6 |[M:1/4] [D,D]2 | %6
[M:4/4] [D,A,]3 [D,A,] [D,A,]2 [D,D]2 |[M:9/8] [G,D]2 [E,A,]- [E,A,] [D,A,]2- [D,A,][F,A,][G,B,] | %8
[M:4/4] [A,D]2 z E A,,2 A,,2 | D,6 z2 | [D,A,]D,D,[D,A,][K:treble] [G,B,G][G,B,G][G,CG][G,DG] | %11
 D,D,D,D, D,2 D,2 | A,A,A,[K:treble][A,EG] [A,EG][A,EG][K:bass][A,,A,][A,,A,] | %13
[M:9/8] .[D,A,]3 [D,A,] [D,D]2- [D,D] [D,D]2 |[M:4/4] [D,A,]D,D,[D,A,] [D,A,][D,A,][D,A,][D,A,] | %15
 [G,B,]G,G,G,[K:treble] [G,D]2 [^G,B,=F]2 | [A,DF]3 [A,DF] [A,CG][A,CG][A,DG][A,EG] | %17
[M:3/4][K:bass] [D,D]6 |] %18
V:4
 z4 z2 D,2 | x8 | x8 | x8 |[M:3/4][K:bass] x6 |[M:1/4] x2 |[M:4/4] x8 |[M:9/8] x9 | %8
[M:4/4] z2 [A,,A,]2 z4 | x8 | x4[K:treble] x4 | x8 | x3[K:treble] x3[K:bass] x2 |[M:9/8] x9 | %14
[M:4/4] x8 | x4[K:treble] x4 | x8 |[M:3/4][K:bass] x6 |] %18

